!!!COA: des Prez, Josquin
!!!CDT: ~1450-1521/08/27
!!!OTL: Adieu mes amours (texted Ave Maria; 3 vv. extant)
!!!AGN: Chanson; Fragment
!!!SCT: NJE 30.1
!!!SCA: New Josquin Edition 30.1
!!!voices: 6
**kern	**kern	**kern	**kern	**kern	**kern
*part6	*part5	*part4	*part3	*part2	*part1
*staff6	*staff5	*staff4	*staff3	*staff2	*staff1
*Ivox	*Ivox	*Ivox	*Ivox	*Ivox	*Ivox
*I"Bassus 2	*I"Bassus 1	*I"Tenor2	*I"Tenor1	*I"Altus	*I"Superius
*I'B2	*I'B1	*I'T2	*I'T1	*I'A	*I'S
*clefF4	*clefF4	*clefGv2	*clefGv2	*clefGv2	*clefG2
*k[b-]	*k[b-]	*k[b-]	*k[b-]	*k[b-]	*k[b-]
*d:	*d:	*d:	*d:	*d:	*d:
*M2/1	*M2/1	*M2/1	*M2/1	*M2/1	*M2/1
*met(C|)	*met(C|)	*met(C|)	*met(C|)	*met(C|)	*met(C|)
=	=	=	=	=	=
!	!LO:TX:Z=8:t=B1-->T2 canon at the upper 8ve, 3 Sb	!	!	!	!
0ryy	0r	0r	0ryy	0ryy	1g
.	.	.	.	.	1b-
=3	=3	=3	=3	=3	=3
0ryy	0r	0r	0ryy	0ryy	1a
.	.	.	.	.	1g
=4	=4	=4	=4	=4	=4
0ryy	1GG	0r	0ryy	0ryy	0dd
.	1BB-	.	.	.	.
=5	=5	=5	=5	=5	=5
0ryy	1AA	1r	0ryy	0ryy	2r
.	.	.	.	.	2cc
.	1GG	1G	.	.	2.b-
.	.	.	.	.	8aL
.	.	.	.	.	8gJ
=6	=6	=6	=6	=6	=6
0ryy	0D	1B-	0ryy	0ryy	2f
.	.	.	.	.	1g
.	.	1A	.	.	.
.	.	.	.	.	2f#Xi
=7	=7	=7	=7	=7	=7
0ryy	0r	1G	0ryy	0ryy	2.g
.	.	.	.	.	4a
.	.	[1d	.	.	4b-
.	.	.	.	.	4cc
.	.	.	.	.	[2dd
=8	=8	=8	=8	=8	=8
0ryy	0r	1d]	0ryy	0ryy	2dd]
.	.	.	.	.	4cc
.	.	.	.	.	4b-
.	.	1r	.	.	2a
.	.	.	.	.	[2dd
=9	=9	=9	=9	=9	=9
0ryy	1r	0r	0ryy	0ryy	4dd]
.	.	.	.	.	4cc
.	.	.	.	.	4b-
.	.	.	.	.	4a
.	[1C	.	.	.	1g
=10	=10	=10	=10	=10	=10
0ryy	2C]	0r	0ryy	0ryy	1.cc
.	2BB-	.	.	.	.
.	2AA	.	.	.	.
.	2GG	.	.	.	2b-
=11	=11	=11	=11	=11	=11
0ryy	0FF	1.c	0ryy	0ryy	2a
.	.	.	.	.	2g
.	.	.	.	.	1f
.	.	2B-	.	.	.
=12	=12	=12	=12	=12	=12
0ryy	0r	2A	0ryy	0ryy	2r
.	.	2G	.	.	2cc
.	.	[1F	.	.	2b-
.	.	.	.	.	[2a
=13	=13	=13	=13	=13	=13
0ryy	0r	1F]	0ryy	0ryy	2a]
.	.	.	.	.	4g
.	.	.	.	.	4f
.	.	1r	.	.	1g
=14	=14	=14	=14	=14	=14
0ryy	0r	0r	0ryy	0ryy	1f
.	.	.	.	.	1e
=15	=15	=15	=15	=15	=15
0ryy	1GG	0r	0ryy	0ryy	1d
.	1BB-	.	.	.	2r
.	.	.	.	.	2d
=16	=16	=16	=16	=16	=16
0ryy	1AA	1r	0ryy	0ryy	4c
.	.	.	.	.	4d
.	.	.	.	.	4e
.	.	.	.	.	4f
.	1GG	1G	.	.	1g
=17	=17	=17	=17	=17	=17
0ryy	0D	1B-	0ryy	0ryy	1r
.	.	1A	.	.	1a
=18	=18	=18	=18	=18	=18
0ryy	0r	1G	0ryy	0ryy	2.b-
.	.	.	.	.	8aL
.	.	.	.	.	8gJ
.	.	[1d	.	.	2f
.	.	.	.	.	[2b-
=19	=19	=19	=19	=19	=19
0ryy	1r	1d]	0ryy	0ryy	2b-]
.	.	.	.	.	2a
.	[1C	1r	.	.	1g
=20	=20	=20	=20	=20	=20
0ryy	2C]	0r	0ryy	0ryy	0r
.	2BB-	.	.	.	.
.	1GG	.	.	.	.
=21	=21	=21	=21	=21	=21
0ryy	1AA	1.c	0ryy	0ryy	1r
.	[1GG	.	.	.	2r
.	.	2B-	.	.	[2b-
=22	=22	=22	=22	=22	=22
0ryy	1GG]	1G	0ryy	0ryy	4b-]
.	.	.	.	.	4a
.	.	.	.	.	1g
.	1r	1A	.	.	.
.	.	.	.	.	2f#Xi
=23	=23	=23	=23	=23	=23
0ryy	1r	0G	0ryy	0ryy	2g
.	.	.	.	.	1b-
.	1GG	.	.	.	.
.	.	.	.	.	4a
.	.	.	.	.	4g
=24	=24	=24	=24	=24	=24
0ryy	1D	0r	0ryy	0ryy	2a
.	.	.	.	.	2.g
.	1BB-	.	.	.	.
.	.	.	.	.	4f
.	.	.	.	.	[2f
=25	=25	=25	=25	=25	=25
0ryy	1C	1G	0ryy	0ryy	2f]
.	.	.	.	.	2e
.	[1D	1d	.	.	1f
=26	=26	=26	=26	=26	=26
0ryy	1D]	1B-	0ryy	0ryy	2g
.	.	.	.	.	2b-
.	1C	1c	.	.	1a
=27	=27	=27	=27	=27	=27
0ryy	1BB-	0d	0ryy	0ryy	2d
.	.	.	.	.	2.b-
.	1GG	.	.	.	.
.	.	.	.	.	4a
.	.	.	.	.	[2g
=28	=28	=28	=28	=28	=28
0ryy	1AA	1c	0ryy	0ryy	2g]
.	.	.	.	.	2f#Xi
.	[1GG	1B-	.	.	[1g
=29	=29	=29	=29	=29	=29
0ryy	1GG]	1G	0ryy	0ryy	1g]
.	1r	1A	.	.	1r
=30	=30	=30	=30	=30	=30
0ryy	1r	0G	0ryy	0ryy	2r
.	.	.	.	.	1b-
.	1GG	.	.	.	.
.	.	.	.	.	4a
.	.	.	.	.	4g
=31	=31	=31	=31	=31	=31
0ryy	1D	0r	0ryy	0ryy	2a
.	.	.	.	.	2.g
.	1BB-	.	.	.	.
.	.	.	.	.	4f
.	.	.	.	.	[2f
=32	=32	=32	=32	=32	=32
0ryy	1C	1G	0ryy	0ryy	2f]
.	.	.	.	.	2e
.	[1D	1d	.	.	1f
=33	=33	=33	=33	=33	=33
0ryy	1D]	1B-	0ryy	0ryy	2g
.	.	.	.	.	2b-
.	1C	1c	.	.	1a
=34	=34	=34	=34	=34	=34
0ryy	1BB-	0d	0ryy	0ryy	2d
.	.	.	.	.	2.b-
.	1GG	.	.	.	.
.	.	.	.	.	4a
.	.	.	.	.	[2g
=35	=35	=35	=35	=35	=35
0ryy	1AA	1c	0ryy	0ryy	2g]
.	.	.	.	.	2f#Xi
.	[1GG	1B-	.	.	[1g
=36	=36	=36	=36	=36	=36
0ryy	1GG]	1G	0ryy	0ryy	1g]
.	1r	1A	.	.	1r
=37	=37	=37	=37	=37	=37
0ryy	0r	0G	0ryy	0ryy	1r
.	.	.	.	.	2r
.	.	.	.	.	2g
=38	=38	=38	=38	=38	=38
0ryy	0r	0r	0ryy	0ryy	1b-
.	.	.	.	.	1a
=39	=39	=39	=39	=39	=39
0ryy	1r	0r	0ryy	0ryy	1g
.	1GG	.	.	.	[1dd
=40	=40	=40	=40	=40	=40
0ryy	1BB-	0r	0ryy	0ryy	1dd]
.	1AA	.	.	.	2r
.	.	.	.	.	2cc
=41	=41	=41	=41	=41	=41
0ryy	1GG	1G	0ryy	0ryy	2.b-
.	.	.	.	.	8aL
.	.	.	.	.	8gJ
.	[1D	1B-	.	.	2f
.	.	.	.	.	[2g
=42	=42	=42	=42	=42	=42
0ryy	1D]	1A	0ryy	0ryy	2g]
.	.	.	.	.	2f#Xi
.	1r	1G	.	.	2.g
.	.	.	.	.	4a
=43	=43	=43	=43	=43	=43
0ryy	0r	0d	0ryy	0ryy	4b-
.	.	.	.	.	4cc
.	.	.	.	.	1dd
.	.	.	.	.	4cc
.	.	.	.	.	4b-
=44	=44	=44	=44	=44	=44
0ryy	0r	0r	0ryy	0ryy	2a
.	.	.	.	.	2.dd
.	.	.	.	.	4cc
.	.	.	.	.	4b-
.	.	.	.	.	4a
=45	=45	=45	=45	=45	=45
0ryy	1.C	0r	0ryy	0ryy	1g
.	.	.	.	.	[1cc
.	2BB-	.	.	.	.
=46	=46	=46	=46	=46	=46
0ryy	2AA	1r	0ryy	0ryy	2cc]
.	2GG	.	.	.	2b-
.	[1FF	[1c	.	.	2a
.	.	.	.	.	2g
=47	=47	=47	=47	=47	=47
0ryy	1FF]	2c]	0ryy	0ryy	1f
.	.	2B-	.	.	.
.	1r	2A	.	.	2r
.	.	2G	.	.	2cc
=48	=48	=48	=48	=48	=48
0ryy	0r	0F	0ryy	0ryy	2b-
.	.	.	.	.	1a
.	.	.	.	.	4g
.	.	.	.	.	4f
=49	=49	=49	=49	=49	=49
0ryy	0r	0r	0ryy	0ryy	1g
.	.	.	.	.	1f
=50	=50	=50	=50	=50	=50
0ryy	1r	0r	0ryy	0ryy	1e
.	1GG	.	.	.	1d
=51	=51	=51	=51	=51	=51
0ryy	1BB-	0r	0ryy	0ryy	2r
.	.	.	.	.	2d
.	1AA	.	.	.	4c
.	.	.	.	.	4d
.	.	.	.	.	4e
.	.	.	.	.	4f
=52	=52	=52	=52	=52	=52
0ryy	1GG	1G	0ryy	0ryy	1g
.	[1D	1B-	.	.	1r
=53	=53	=53	=53	=53	=53
0ryy	1D]	1A	0ryy	0ryy	1a
.	1r	1G	.	.	2.b-
.	.	.	.	.	8aL
.	.	.	.	.	8gJ
=54	=54	=54	=54	=54	=54
0ryy	0r	0d	0ryy	0ryy	2f
.	.	.	.	.	1b-
.	.	.	.	.	2a
=55	=55	=55	=55	=55	=55
0ryy	1.C	0r	0ryy	0ryy	1g
.	.	.	.	.	1r
.	2BB-	.	.	.	.
=56	=56	=56	=56	=56	=56
0ryy	1GG	1r	0ryy	0ryy	0r
.	1AA	[1c	.	.	.
=57	=57	=57	=57	=57	=57
0ryy	0GG	2c]	0ryy	0ryy	2r
.	.	2B-	.	.	2.b-
.	.	1G	.	.	.
.	.	.	.	.	4a
.	.	.	.	.	[2g
=58	=58	=58	=58	=58	=58
0ryy	0r	1A	0ryy	0ryy	2g]
.	.	.	.	.	2f#Xi
.	.	[1G	.	.	2.g
.	.	.	.	.	8fniL
.	.	.	.	.	8eJ
=59	=59	=59	=59	=59	=59
0ryy	1GG	1G]	0ryy	0ryy	1d
.	1BB-	1r	.	.	2r
.	.	.	.	.	2d
=60	=60	=60	=60	=60	=60
0ryy	1AA	1r	0ryy	0ryy	4c
.	.	.	.	.	4d
.	.	.	.	.	4e
.	.	.	.	.	4f
.	1GG	1G	.	.	1g
=61	=61	=61	=61	=61	=61
0ryy	0D	1B-	0ryy	0ryy	1r
.	.	1A	.	.	1a
=62	=62	=62	=62	=62	=62
0ryy	0r	1G	0ryy	0ryy	2.b-
.	.	.	.	.	8aL
.	.	.	.	.	8gJ
.	.	[1d	.	.	2f
.	.	.	.	.	[2b-
=63	=63	=63	=63	=63	=63
0ryy	1r	1d]	0ryy	0ryy	2b-]
.	.	.	.	.	2a
.	[1C	1r	.	.	1g
=64	=64	=64	=64	=64	=64
0ryy	2C]	0r	0ryy	0ryy	0r
.	2BB-	.	.	.	.
.	1GG	.	.	.	.
=65	=65	=65	=65	=65	=65
0ryy	1AA	1.c	0ryy	0ryy	1r
.	[1GG	.	.	.	2r
.	.	2B-	.	.	[2b-
=66	=66	=66	=66	=66	=66
0ryy	1GG]	1G	0ryy	0ryy	4b-]
.	.	.	.	.	4a
.	.	.	.	.	1g
.	1r	1A	.	.	.
.	.	.	.	.	2f#Xi
=67	=67	=67	=67	=67	=67
0ryy	1r	[0Gl	0ryy	0ryy	[0gl
.	1GG	.	.	.	.
=68	=68	=68	=68	=68	=68
0ryy	1C	0G_	0ryy	0ryy	0g_
.	1BB-	.	.	.	.
=69	=69	=69	=69	=69	=69
0ryy	0C	0G_	0ryy	0ryy	0g_
=70	=70	=70	=70	=70	=70
0ryy	0GGl	0G]	0ryy	0ryy	0g]
==	==	==	==	==	==
*-	*-	*-	*-	*-	*-
!!!RDF**kern: l=long note in original notation
!!!system-decoration: [(s1,s2,s3,s4,s5,s6)]
!!!RDF**kern: i = editorial accidental
!!!ENC: Jesse Rodin 23 Oct 2020
!!!END: 2020/10/23/
!!!EED: Jesse Rodin
!!!EEV: 2021/04/28/
!!attribution-level@Jos: 4a (the rest [double question mark])
!!!ONB: Translated from MusicXML and edited on 2021/04/28/ by Craig Sapp
!!muse2ps: C^@{COA}??\n@{SCT}^i2I150v80,80,80,80,80,100z18c145F
